X: 989
T: Tow Row Row
R: polka, march
%S: s:2 b:18(9+9)
B: Francis O'Neill: "The Dance Music of Ireland" (1907) #989
Z: Frank Nordberg - http://www.musicaviva.com
F: http://www.musicaviva.com/abc/tunes/ireland/oneill-1001/0989/oneill-1001-0989-1.abc
M: 2/4
L: 1/8
K: G
%%continueall 1
"^A"\
|::: (3(d/e/f/) | gB BA/G/ | FA AB/A/ | Gg g/f/g/a/ | bgg :::|\
"^B"\
|: (B/c/) |\
dB d(e/f/) | gfed | dB d(e/f/)  | gfed ||
e/e/e/e/ ed | gBBA | G/G/G/F/ GA | BGED \
|:\
G/G/G/F/ GB | A/A/A/A/ AB |[1 Gg fe | dcBA :|[2 Gg (fa) | g3g :|
